!!!!SEGMENT: pl-sa--549-a-ix-29--042_anonim--aria.krn
!!!cenid: 18xx:496
!!!COM: Anonim
!!!COM-rismID: pe30004985
!!!CDT:
!!!CNT:
!!!OTL: Aria
!!!PDT:
!!!AGN: Secular
!!!SMS-siglum: PL-SA
!!!SMS-shelfmark: 549/A IX 29
!!!SMS-shelfwork: 042 W
!!!SMS-variant:
!!!SMS-altvar:
!!!NIFC-rismSourceID: 1001068942
!!!NIFC-islandoraID:
!!!URL-pdf-islandora:
!!!URL-scan: https://bc.bdsandomierz.pl/dlibra/publication/1441/edition/1409/content @EN{Scan on Cyfrowa Biblioteka Diecezjalna w Sandomierzu} @PL{Skany w portalu Cyfrowa Biblioteka Diecezjalna w Sandomierzu}
!!!ONB-nifc: Str. 30 (s. 6) – str. 31 (s. 1)
!!!AIN: 1 piano
!!!key: A
**kern	**kern
*part1	*part1
*staff2	*staff1
*I"[Pianoforte]	*I"[Pianoforte]
*Ipiano	*Ipiano
*ICklav	*ICklav
*clefF4	*clefG2
*k[c#f#g#]	*k[c#f#g#]
*A:	*A:
*M3/8	*M3/8
*>[A,B,C1,C,C2,B]	*>[A,B,C1,C,C2,B]
=1	=1
*>A	*>A
!!LO:TX:t=P:problem:metrum zapisane ułamkiem
8AA/	16ee\LL
.	16ee\JJ
4c# 4A 4E\L	8.ccc#\L
.	16bb\Jk
=2	=2
8AA/	16aa\LL
.	16gg#\JJ
4c# 4A 4E\	8ff#\L
.	8ee\J
=3	=3
8EE/	16dd#X\LL
.	16ee\JJ
4d 4B 4E\	8ff#\L
.	8gg#\J
=4	=4
8c# 8A\	8aa\
4AA/	4aa\
!!LO:TX:t=P:problem:znak [segno] na kresce taktowej (?)
=5||	=5||
*>B	*>B
!LO:TX:t=P:problem=mixed beam	!
8AA/L	16e/LL
.	16e/JJ
8c# 8A 8E\	8.cc#\L
8c#J 8A 8E\	.
.	16b\Jk
=6	=6
*rep	*
8AA/L	16a/LL
.	16g#/JJ
8c# 8A 8E\	8.f#/L
8c#J 8A 8E\	.
.	16e/Jk
*Xrep	*
=7	=7
!LO:TX:t=P:problem=mixed beam	!
8EE/L	16e/LL
.	16e/JJ
8d 8B 8E\	8f#/L
!	!LO:TX:t=P:problem=8e poprawione na 8g#
8dJ 8B 8E\	8g#/J
=8	=8
!LO:TX:t=P:problem=mixed beam	!
8AA/L	16a/LL
.	16b/J
8c# 8A 8E\	8cc#/
8c#J 8A 8E\	8e/J
=9	=9
*rep	*
8AA/L	16e/LL
.	16e/JJ
8c# 8A 8E\	8.cc#\L
8c#J 8A 8E\	.
.	16b\Jk
*Xrep	*
=10	=10
*rep	*
8AA/L	16a/LL
.	16g#/JJ
8c# 8A 8E\	8.f#/L
8c#J 8A 8E\	.
.	16e/Jk
*Xrep	*
=11	=11
!LO:TX:t=P:problem=mixed beam	!
8EE/L	16e/LL
.	16e/JJ
8d 8B 8E\	8.f#/L
8dJ 8B 8E\	.
.	16g#/Jk
!!linebreak:original
=12	=12
!LO:TX:t=P:problem=mixed beam	!
8AA/L	16a\LL
.	16b\JJ
8c# 8A 8E\	8cc#\L
8c#J 8A 8E\	8dd\J
=13!|:	=13!|:
*>C	*>C
8EE/	16ff#\LL
.	16ee\JJ
4d 4B 4E\	4b\
=14	=14
8AA/	16dd\LL
.	16cc#\JJ
4c# 4A 4E\	4a/
=15	=15
!LO:TX:t=P:problem=mixed beam	!
8EE/L	16cc#/LL
.	16b/JJ
8d 8B 8E\	8f#/L
8dJ 8B 8E\	8g#/J
=16	=16
!!LO:TX:a:B:t=1mo
*>C1	*>C1
8AA/	16a\LL
.	16b\JJ
4c# 4A 4E\	4cc#\
=17:|!	=17:|!
!!LO:TX:a:B:t=2do
*>C2	*>C2
8A\	16a\LL
.	16b\JJ
4AA/	4a/
!	!LO:TX:b:i:t=Dal Segno
!LO:TX:t=[segno]:problem=znak segno na kresce taktowej	!LO:TX:t=[segno]:problem=znak segno na kresce taktowej
==	==
*-	*-
!!!system-decoration: {(s1,s2)}
!!!RDF**kern: > = above
!!!RDF**kern: < = below
!!!ENC: Katarzyna Serwa
!!!END: 2022-01-05
!!!ENC: Anastazja Marusiak
!!!END: 2020-06-17
